icons/plexis/48/okular.svg

<svg viewBox="0 0 48 48" xmlns="http://www.w3.org/2000/svg" xmlns:xlink="http://www.w3.org/1999/xlink">
  <linearGradient id="a" gradientTransform="matrix(0 -1 1 0 -.0000015 47.999998)" gradientUnits="userSpaceOnUse" x1="1" x2="47">
    <stop offset="0" stop-color="#e4e4e4"/>
    <stop offset="1" stop-color="#eee"/>
  </linearGradient>
  <path d="m47 24c0 22.703-.297 23-23 23-22.703 0-23-.297-23-23 0-22.703.297-23 23-23 22.703 0 23 .297 23 23z" fill="url(#a)"/>
  <path d="m26.445 1.131c-.126.247-1.461 2.865-1.473 2.865l-.004.004c-2.657 4.877-4.315 10.09-4.611 14.631a8.5 8.5 0 0 0-2.357 5.869 8.5 8.5 0 0 0  1.84 5.27l-4.055 4.063 1.387 1.387 4.051-4.057a8.5 8.5 0 0 0 5.277 1.838 8.5 8.5 0 0 0  5.654-2.164c3.643-.418 8.2-1.925 13.824-4.883.244-.146.595-.308.969-.469.031-.491.053-.985.053-1.484 0-1.828-.22-3.602-.623-5.307-.418.489-.878 1.033-1 1.178-4.062 4.752-7.981 7.465-11.287 8.463a8.5 8.5 0 0 0  .914-3.834 8.5 8.5 0 0 0-8.5-8.5 8.5 8.5 0 0 0-1 .066c.743-3.29 2.249-7.132 4.686-11.434-.003.003.72-1.296 1.318-2.373-1.613-.557-3.305-.944-5.059-1.129zm.055 16.369a7 7 0 0 1 7 7 7 7 0 0 1-1.439 4.238c-5.02.455-8.06-3.689-6.865-11.11a7 7 0 0 1 1.305-.127zm-6.158 3.676c.318 5.428 3.02 9.395 8.9 9.756a7 7 0 0 1-2.742.568 7 7 0 0 1-7-7 7 7 0 0 1  .842-3.324zm-4.967 12.48l-4.363 4.371 1.973 1.98 4.367-4.371z" fill-opacity=".098"/>
  <path d="m24.986 1.025c-.454.888-1.01 1.971-1.014 1.971l-.004.004c-8.898 16.332-6.723 36.535 21.01 21.953.499-.298 1.322-.629 2.02-.893 0-.02.002-.04.002-.061 0-2.424-.377-4.759-1.072-6.953-.73.857-1.36 1.6-1.555 1.824-14.973 17.516-28.09 7.535-15.188-15.238-.002.002.496-.893.992-1.787-1.663-.463-3.4-.745-5.191-.82z" fill="#2f93cf"/>
  <path d="m16.352 34.637l-1.977-1.98-4.363 4.371 1.973 1.98m4.367-4.371" fill="#2e3436"/>
  <path d="m20.535 29.848l-1.387-1.387-4.363 4.371 1.387 1.387m4.363-4.371" fill="#2e3436"/>
  <path d="m24.26 16.311a8.5 8.5 0 0 0-4.934 3.634c.046 1.009.177 1.965.389 2.864a7 7 0 0 1 4.315-4.854c.05-.529.13-1.078.23-1.644zm10.439 10.418c-.629.281-1.245.511-1.838.677a7 7 0 0 1-1.863 2.448c.756-.081 1.547-.205 2.385-.385a8.5 8.5 0 0 0 1.316-2.74z" fill-opacity=".098"/>
  <path d="m25.5 15a8.5 8.5 0 0 0-8.5 8.5 8.5 8.5 0 0 0  8.5 8.5 8.5 8.5 0 0 0  8.5-8.5 8.5 8.5 0 0 0-8.5-8.5zm0 1.5a7 7 0 0 1 7 7 7 7 0 0 1-7 7 7 7 0 0 1-7-7 7 7 0 0 1  7-7z" fill="#2e3436"/>
</svg>

<svg xmlns="http://www.w3.org/2000/svg" viewBox="0 0 48 48">
 <defs>
  <linearGradient id="linearGradient3764" x1="1" x2="47" gradientUnits="userSpaceOnUse" gradientTransform="matrix(0,-1,1,0,-1.5e-6,47.999998)">
   <stop style="stop-color:#e4e4e4;stop-opacity:1"/>
   <stop offset="1" style="stop-color:#eee;stop-opacity:1"/>
  </linearGradient>
 </defs>
 <g>
  
  
  
 </g>
 <g>
  <path d="m 47,24 C 47,46.703 46.703,47 24,47 1.297,47 1,46.703 1,24 1,1.297 1.297,1 24,1 46.703,1 47,1.297 47,24 z" style="fill:url(#linearGradient3764);fill-opacity:1"/>
  <path d="m 26.445 1.131 c -0.126 0.247 -1.461 2.865 -1.473 2.865 l -0.004 0.004 c -2.657 4.877 -4.315 10.09 -4.611 14.631 a 8.5 8.5 0 0 0 -2.357 5.869 a 8.5 8.5 0 0 0 1.84 5.27 l -4.055 4.063 l 1.387 1.387 l 4.051 -4.057 a 8.5 8.5 0 0 0 5.277 1.838 a 8.5 8.5 0 0 0 5.654 -2.164 c 3.643 -0.418 8.2 -1.925 13.824 -4.883 c 0.244 -0.146 0.595 -0.308 0.969 -0.469 c 0.031 -0.491 0.053 -0.985 0.053 -1.484 c 0 -1.828 -0.22 -3.602 -0.623 -5.307 c -0.418 0.489 -0.878 1.033 -1 1.178 c -4.062 4.752 -7.981 7.465 -11.287 8.463 a 8.5 8.5 0 0 0 0.914 -3.834 a 8.5 8.5 0 0 0 -8.5 -8.5 a 8.5 8.5 0 0 0 -1 0.066 c 0.743 -3.29 2.249 -7.132 4.686 -11.434 c -0.003 0.003 0.72 -1.296 1.318 -2.373 c -1.613 -0.557 -3.305 -0.944 -5.059 -1.129 z m 0.055 16.369 a 7 7 0 0 1 7 7 a 7 7 0 0 1 -1.439 4.238 c -5.02 0.455 -8.06 -3.689 -6.865 -11.11 a 7 7 0 0 1 1.305 -0.127 z m -6.158 3.676 c 0.318 5.428 3.02 9.395 8.9 9.756 a 7 7 0 0 1 -2.742 0.568 a 7 7 0 0 1 -7 -7 a 7 7 0 0 1 0.842 -3.324 z m -4.967 12.48 l -4.363 4.371 l 1.973 1.98 l 4.367 -4.371 l -1.977 -1.98 z" style="fill:#000;fill-opacity:0.098"/>
  <path d="m 24.986 1.025 c -0.454 0.888 -1.01 1.971 -1.014 1.971 l -0.004 0.004 c -8.898 16.332 -6.723 36.535 21.01 21.953 c 0.499 -0.298 1.322 -0.629 2.02 -0.893 c 0 -0.02 0.002 -0.04 0.002 -0.061 c 0 -2.424 -0.377 -4.759 -1.072 -6.953 c -0.73 0.857 -1.36 1.6 -1.555 1.824 c -14.973 17.516 -28.09 7.535 -15.188 -15.238 c -0.002 0.002 0.496 -0.893 0.992 -1.787 c -1.663 -0.463 -3.4 -0.745 -5.191 -0.82 z" style="fill:#2f93cf;fill-opacity:1"/>
 </g>
 <g>
  <g>
   <g transform="translate(1,1)">
    <g style="opacity:0.1">
     <!-- color: #eeeeee -->
    </g>
   </g>
  </g>
 </g>
 <g>
  <g>
   <!-- color: #eeeeee -->
   <g>
    <path d="m 16.352 34.637 l -1.977 -1.98 l -4.363 4.371 l 1.973 1.98 m 4.367 -4.371" style="fill:#2e3436;fill-opacity:1;stroke:none;fill-rule:nonzero"/>
    <path d="m 20.535 29.848 l -1.387 -1.387 l -4.363 4.371 l 1.387 1.387 m 4.363 -4.371" style="fill:#2e3436;fill-opacity:1;stroke:none;fill-rule:nonzero"/>
    <path d="M 24.26 16.311 A 8.5 8.5 0 0 0 19.326 19.945 C 19.372 20.954 19.503 21.91 19.715 22.809 A 7 7 0 0 1 24.03 17.955 C 24.08 17.426 24.16 16.877 24.26 16.311 z M 34.699 26.729 C 34.07 27.01 33.454 27.24 32.861 27.406 A 7 7 0 0 1 30.998 29.854 C 31.754 29.773 32.545 29.649 33.383 29.469 A 8.5 8.5 0 0 0 34.699 26.729 z" style="fill:#000;fill-opacity:0.098;stroke:none;fill-rule:nonzero"/>
   </g>
  </g>
 </g>
 <g>
  
 </g>
 <path d="M 25.5 15 A 8.5 8.5 0 0 0 17 23.5 A 8.5 8.5 0 0 0 25.5 32 A 8.5 8.5 0 0 0 34 23.5 A 8.5 8.5 0 0 0 25.5 15 z M 25.5 16.5 A 7 7 0 0 1 32.5 23.5 A 7 7 0 0 1 25.5 30.5 A 7 7 0 0 1 18.5 23.5 A 7 7 0 0 1 25.5 16.5 z" style="fill:#2e3436;opacity:1;fill-opacity:1;stroke:none"/>
</svg>
